X: 1
T: FLORIDA CRACKERS' -- HORNPIPE
C: Frank Livingston
B: Ryan's Mammoth Collection of Fiddle Tunes
R: hornpipe
M: 2/4
L: 1/16
Z: Contributed 20000522191939 by John Chambers jchambers:casc.com
K: F
vc"0"A \
| F"0"Ac"0"A FAcA | Bd"4"fd Bd"4"fd | c"0"ege cege | f"4"c'"3"af cBAG |
| F"0"Ac"0"A FAcA | Bd"4"fd Bd"4"fd | cbg"0"e cBAG | F2a2f2 :|
|: vga \
| bg"0"ec =Bc_Bc | Acfc acfc | Bc"0"ec bc"0"ec | Acf"3"a "4"c'"3"afc |
| bg"0"ec =Bc_Bc | Acfc acfc | "0"ebge cBAG | F2a2f2 :|
